images/instagram.svg

<svg fill="none" height="34" viewBox="0 0 34 34" width="34" xmlns="http://www.w3.org/2000/svg" xmlns:xlink="http://www.w3.org/1999/xlink"><clipPath id="a"><path d="m0 0h34v34h-34z"/></clipPath><g clip-path="url(#a)" fill="#002922"><path d="m17 3.06133c4.5422 0 5.0801.01992 6.8664.09961 1.6602.07304 2.5567.35195 3.1543.58437.7902.30547 1.3613.67735 1.9524 1.26836.5976.59766.9628 1.16211 1.2683 1.95235.2324.59765.5113 1.50078.5844 3.15428.0797 1.793.0996 2.3309.0996 6.8664 0 4.5422-.0199 5.0801-.0996 6.8664-.0731 1.6602-.352 2.5567-.5844 3.1543-.3055.7903-.6773 1.3613-1.2683 1.9524-.5977.5976-1.1622.9629-1.9524 1.2683-.5976.2324-1.5008.5114-3.1543.5844-1.793.0797-2.3308.0996-6.8664.0996-4.5422 0-5.0801-.0199-6.8664-.0996-1.66016-.073-2.55664-.352-3.1543-.5844-.79024-.3054-1.36133-.6773-1.95235-1.2683-.59765-.5977-.96289-1.1621-1.26836-1.9524-.23242-.5976-.51132-1.5008-.58437-3.1543-.07969-1.7929-.09961-2.3308-.09961-6.8664 0-4.5422.01992-5.0801.09961-6.8664.07305-1.66015.35195-2.55663.58437-3.15428.30547-.79024.67735-1.36133 1.26836-1.95235.59766-.59765 1.16211-.96289 1.95235-1.26836.59766-.23242 1.50078-.51133 3.1543-.58437 1.7863-.07969 2.3242-.09961 6.8664-.09961zm0-3.06133c-4.6152 0-5.193.0199219-7.00586.0996094-1.80625.0796876-3.04804.3718746-4.12383.7902346-1.12226.438276-2.07187 1.016016-3.01484 1.965626-.94961.94297-1.52734 1.89258-1.965626 3.0082-.41836 1.08242-.710547 2.31758-.7902346 4.12383-.0796875 1.8195-.0996094 2.3973-.0996094 7.0125s.0199219 5.193.0996094 7.0059c.0796876 1.8062.3718746 3.048.7902346 4.1238.438286 1.1223 1.016016 2.0719 1.965626 3.0148.94297.943 1.89258 1.5274 3.0082 1.959 1.08243.4184 2.31758.7106 4.12383.7902 1.8129.0797 2.3906.0997 7.0059.0997 4.6152 0 5.1929-.02 7.0058-.0997 1.8063-.0796 3.0481-.3718 4.1239-.7902 1.1156-.4316 2.0652-1.016 3.0082-1.959.9429-.9429 1.5273-1.8925 1.9589-3.0082.4184-1.0824.7106-2.3176.7903-4.1238.0797-1.8129.0996-2.3906.0996-7.0059 0-4.6152-.0199-5.1929-.0996-7.0058-.0797-1.80627-.3719-3.04807-.7903-4.12385-.4183-1.1289-.996-2.07851-1.9457-3.02148-.9429-.94297-1.8925-1.52735-3.0082-1.958986-1.0824-.418359-2.3175-.710547-4.1238-.790234-1.8195-.0863281-2.3973-.10625-7.0125-.10625z"/><path d="m17 8.26758c-4.8211 0-8.73242 3.91132-8.73242 8.73242s3.91132 8.7324 8.73242 8.7324 8.7324-3.9113 8.7324-8.7324-3.9113-8.73242-8.7324-8.73242zm0 14.39692c-3.1277 0-5.6645-2.5368-5.6645-5.6645s2.5368-5.6645 5.6645-5.6645 5.6645 2.5368 5.6645 5.6645-2.5368 5.6645-5.6645 5.6645z"/><path d="m28.1164 7.92222c0 1.12891-.9164 2.03867-2.0387 2.03867-1.1289 0-2.0386-.9164-2.0386-2.03867 0-1.12891.9164-2.03868 2.0386-2.03868 1.1223 0 2.0387.91641 2.0387 2.03868z"/></g></svg>

<svg width="34" height="34" viewBox="0 0 34 34" fill="none" xmlns="http://www.w3.org/2000/svg">
<g clip-path="url(#clip0_149_367)">
<path d="M17 3.06133C21.5422 3.06133 22.0801 3.08125 23.8664 3.16094C25.5266 3.23398 26.4231 3.51289 27.0207 3.74531C27.8109 4.05078 28.382 4.42266 28.9731 5.01367C29.5707 5.61133 29.9359 6.17578 30.2414 6.96602C30.4738 7.56367 30.7527 8.4668 30.8258 10.1203C30.9055 11.9133 30.9254 12.4512 30.9254 16.9867C30.9254 21.5289 30.9055 22.0668 30.8258 23.8531C30.7527 25.5133 30.4738 26.4098 30.2414 27.0074C29.9359 27.7977 29.5641 28.3687 28.9731 28.9598C28.3754 29.5574 27.8109 29.9227 27.0207 30.2281C26.4231 30.4605 25.5199 30.7395 23.8664 30.8125C22.0734 30.8922 21.5356 30.9121 17 30.9121C12.4578 30.9121 11.9199 30.8922 10.1336 30.8125C8.47344 30.7395 7.57696 30.4605 6.9793 30.2281C6.18906 29.9227 5.61797 29.5508 5.02695 28.9598C4.4293 28.3621 4.06406 27.7977 3.75859 27.0074C3.52617 26.4098 3.24727 25.5066 3.17422 23.8531C3.09453 22.0602 3.07461 21.5223 3.07461 16.9867C3.07461 12.4445 3.09453 11.9066 3.17422 10.1203C3.24727 8.46015 3.52617 7.56367 3.75859 6.96602C4.06406 6.17578 4.43594 5.60469 5.02695 5.01367C5.62461 4.41602 6.18906 4.05078 6.9793 3.74531C7.57696 3.51289 8.48008 3.23398 10.1336 3.16094C11.9199 3.08125 12.4578 3.06133 17 3.06133ZM17 0C12.3848 0 11.807 0.0199219 9.99414 0.0996094C8.18789 0.179297 6.9461 0.471484 5.87031 0.889844C4.74805 1.32812 3.79844 1.90586 2.85547 2.85547C1.90586 3.79844 1.32813 4.74805 0.889844 5.86367C0.471484 6.94609 0.179297 8.18125 0.0996094 9.9875C0.0199219 11.807 0 12.3848 0 17C0 21.6152 0.0199219 22.193 0.0996094 24.0059C0.179297 25.8121 0.471484 27.0539 0.889844 28.1297C1.32813 29.252 1.90586 30.2016 2.85547 31.1445C3.79844 32.0875 4.74805 32.6719 5.86367 33.1035C6.9461 33.5219 8.18125 33.8141 9.9875 33.8937C11.8004 33.9734 12.3781 33.9934 16.9934 33.9934C21.6086 33.9934 22.1863 33.9734 23.9992 33.8937C25.8055 33.8141 27.0473 33.5219 28.1231 33.1035C29.2387 32.6719 30.1883 32.0875 31.1313 31.1445C32.0742 30.2016 32.6586 29.252 33.0902 28.1363C33.5086 27.0539 33.8008 25.8187 33.8805 24.0125C33.9602 22.1996 33.9801 21.6219 33.9801 17.0066C33.9801 12.3914 33.9602 11.8137 33.8805 10.0008C33.8008 8.19453 33.5086 6.95273 33.0902 5.87695C32.6719 4.74805 32.0942 3.79844 31.1445 2.85547C30.2016 1.9125 29.252 1.32812 28.1363 0.896484C27.0539 0.478125 25.8188 0.185937 24.0125 0.10625C22.193 0.0199219 21.6152 0 17 0Z" fill="#002922"/>
<path d="M17 8.26758C12.1789 8.26758 8.26758 12.1789 8.26758 17C8.26758 21.8211 12.1789 25.7324 17 25.7324C21.8211 25.7324 25.7324 21.8211 25.7324 17C25.7324 12.1789 21.8211 8.26758 17 8.26758ZM17 22.6645C13.8723 22.6645 11.3355 20.1277 11.3355 17C11.3355 13.8723 13.8723 11.3355 17 11.3355C20.1277 11.3355 22.6645 13.8723 22.6645 17C22.6645 20.1277 20.1277 22.6645 17 22.6645Z" fill="#002922"/>
<path d="M28.1164 7.92222C28.1164 9.05113 27.2 9.96089 26.0777 9.96089C24.9488 9.96089 24.0391 9.04449 24.0391 7.92222C24.0391 6.79331 24.9555 5.88354 26.0777 5.88354C27.2 5.88354 28.1164 6.79995 28.1164 7.92222Z" fill="#002922"/>
</g>
<defs>
<clipPath id="clip0_149_367">
<rect width="34" height="34" fill="white"/>
</clipPath>
</defs>
</svg>
